X:014
T:Lansdowne Lass, The
M:4/4
L:1/8
R:reel
D:Altan, Horse With a Heart, 1st track, 4th reel (not named)
Z:Philippe Varlet
K:D
D2FA GEFE|EDFA d2ef|geag efdc|AG~G2 EFGE|
DEFA GEFE|EDFA d2ef|geag ed (3Bcd|1 ed{e}dc dBAF :|2 ed{e}dc d2ag ||
fdfa g2ag|fdfa g2ag|fd=cA BG~G2|ABcA dcAe|
fdfa g2ag|fdfa g2ag|fd=cA BG~G2|1 ABcA d2ag :|2 ABcA dBAF|D4||
